X:1
T:Title
%%score 1 2
L:1/8
Q:1/4=90
M:2/4
K:D
V:1 treble nm="Violin, Soprano"
V:2 bass nm="Violin, Bass"
V:1
 z2 D[DE] | [DF] [DF]2 [CE] | D2 [DF][EG] | [FA] [FA]2 [EG] | [DF]2 D[DF] | [CE]2 [CE][DF] | %6
w: 1.~There~ is~|com ing~ a~|day~ when~ a~|reap ing~ will~|be,~ And~ all~|men~ eve ry|
 [CG][CG] [DF][C=F] | [DF]4- | [DF]2 [FA][FA] | [GB] [GB]2 [Gc] | [Fd]2 [GB]2 | [FA][GB] [FA][EG] | %12
w: where~ will~ have~ to~|share;~|* What~ they've~|sown~ long~ a|go~ will~|sure ly~ sprout~ and~|
 [DF]2 D[CE] | [DF] [DF]2 [EG] | [FA][DF] [B,D][^A,E] | [DF] [A,F]2 [CE] | D4- | D2 [FA][FA] | %18
w: grow,~ And~ some~|day~ in~ the~|fu ture~ will~ bring~|joy~ or~ bring~|woe.~||
 [EA] [CE]2 [DF] | [EG]2 [FA]2 | [DF][DF] [DF][EG] | [FA]2 [FA][FA] | [EA] [CE]2 [DF] | %23
w: |||||
 [EG]2 [DF][CE] | DD D[CE] | [DF]2 [FA]2 | [GB] [GB]2 [Gc] | [Gd][Gc] [Gd][GB] | %28
w: |||||
 [FA][GB] [FA][EG] | [DF]2 D[CE] | [DF] [DF]2 [EG] | [FA][DF] [B,D][^A,E] | [DF] [A,F]2 [CE] | %33
w: |* Oh,~ some~|day~ in~ the~|fu ture~ will~ bring~|joy~ or~ bring~|
 D4- | D2 z2 |] %35
w: woe.~||
V:2
 z2 [D,F,][F,A,] | [D,A,] [D,A,]2 [A,,G,] | [D,F,]2 [D,A,][D,A,] | [D,A,] [D,A,]2 [D,A,] | %4
 [D,A,]2 [D,F,][D,A,] | [A,,G,]2 [A,,G,][A,,A,] | [A,,G,][A,,G,] [D,A,][A,,G,] | [D,A,]4- | %8
 [D,A,]2 [D,A,][F,D] | [G,D] [G,D]2 [A,,G,] | [D,A,]2 [D,B,]2 | [D,A,][D,A,] [D,A,][D,A,] | %12
 [D,A,]2 [D,F,][A,,G,] | [D,A,] [D,A,]2 [D,A,] | [D,A,][D,A,] [G,B,][D,^A,] | %15
 [A,,A,] [A,,A,]2 [A,,G,] | [D,F,]4- | [D,F,]2 [D,A,][D,A,] | [A,,G,] [A,,G,]2 [A,,A,] | %19
 [A,,G,]2 [D,A,]2 | [D,A,][D,A,] [D,A,][D,A,] | [D,A,]2 [D,A,][D,A,] | [A,,G,] [A,,G,]2 [D,A,] | %23
 [A,,G,]2 [D,A,][A,,G,] | [D,F,][D,F,] [D,F,][A,,G,] | [D,A,]2 [D,A,]2 | [G,,B,] [G,,B,]2 [G,,G,] | %27
 [G,,B,][G,,B,] [G,,B,][G,,B,] | [D,A,][D,A,] [D,A,][D,A,] | [D,A,]2 [D,F,][A,,G,] | %30
 [D,A,] [D,A,]2 [D,A,] | [D,A,][D,A,] [G,B,][D,^A,] | [A,,A,] [A,,A,]2 [A,,G,] | [D,F,]4- | %34
 [D,F,]2 z2 |] %35

